X:0132
T:Dainty Davie
N:initial anacrusis is a quaver in the book
M:C
L:1/8
Q:1/2=104
I: :: ::
Z:Jack Campin * www.campin.me.uk * 2009
K:G
g2|d3 c B2AB| AGFE   G4  |G2d2 BcdB| G2d2  B2g2|
   d3 c B2AB| AGFE   G4  |G2g2 agfg|Te4    g2 :|
d2|g2b2 gab2|(gabc') b2ag|f2a2 d2a2|(fgab) a2gf|
   g3 a b2ab| c'bag Tf2ed|efga bagf|Te4    g2 :|

